X:1382
L:1/8
Q:1/8=100
M:2/2
K:G
 d/ |: ^cd=c>d | ^cd=c>d | ^cdB>d | ^cdB>d | ^cde>d | ^cde>d |1 ^cdg>d | ^cdg>d :|2 ccg z/ d/ | 
 ^CDG z/ || G/ | ecG>E | Gc eg/e/ | dBG>D | GB d/d/^c/d/ | ecG>E | Gc e/c/g/e/ | dB G>D | GB d>d |: 
"^Part A repeat" ^cd=c>d | ^cd=c>d | ^cdB>d | ^cdB>d | ^cde>d | ^cde>d |1 ^cdg>d | ^cdg>d :|2 
 ^ccg z/ d/ | ^CD G2- | G4 |]

